src/next/cmd/sc_optimizetable.svg

<svg height="16" viewBox="0 0 4.2333333 4.2333335" width="16" xmlns="http://www.w3.org/2000/svg" xmlns:xlink="http://www.w3.org/1999/xlink"><linearGradient id="a" gradientTransform="scale(.03307292)" gradientUnits="userSpaceOnUse" x1="46.5" x2="72" xlink:href="#b" y1="-22.395977" y2="74.104019"/><radialGradient id="b" cx="48" cy="-.2148" gradientTransform="matrix(.9792 0 0 .9725 133.0002 20.8762)" gradientUnits="userSpaceOnUse" r="55.147999"><stop offset="0" stop-color="#72d13d"/><stop offset=".3553" stop-color="#35ac1c"/><stop offset=".6194" stop-color="#0f9508"/><stop offset=".7574" stop-color="#008c00"/><stop offset="1" stop-color="#007a00"/></radialGradient><radialGradient id="c" cx="52.796875" cy="63.40625" fx="51.796875" fy="93.371971" gradientTransform="matrix(.03307292 0 0 .02152199 0 .732401)" gradientUnits="userSpaceOnUse" r="34.671875" xlink:href="#b"/><linearGradient id="d" gradientUnits="userSpaceOnUse" x1="2.122931" x2="2.122931" y1=".429532" y2="2.770152"><stop offset="0" stop-color="#fff"/><stop offset="1" stop-color="#fff" stop-opacity="0"/></linearGradient><linearGradient id="e" gradientUnits="userSpaceOnUse" x1="8.791887" x2="8.408372" y1="28.396006" y2="-6.000008"><stop offset="0"/><stop offset="1" stop-color="#fff"/></linearGradient><linearGradient id="f" gradientTransform="matrix(.28494299 0 0 .34511728 .597009 263.04019)" gradientUnits="userSpaceOnUse" x1="46.048" x2="46.048" y1="128.01709" y2="16.6203"><stop offset="0" stop-color="#c7cdd7"/><stop offset="1" stop-color="#fff"/></linearGradient><g transform="matrix(.125 0 0 .125 0 -32.891666)"><path d="m2.116667 265.25h29.633333v27.64507h-29.633333z" fill="url(#f)"/><path d="m0 2v.5878906 2.4121094.5 2.5.5 2.5.5 3.013672.486328h1 4 1 4 1 4 1v-.486328-12.513672h-15zm1 .5878906h4v2.4121094h-4zm5 0h4v2.4121094h-4zm5 0h4v2.4121094h-4zm-10 2.9121094h4v2.5h-4zm5 0h4v2.5h-4zm5 0h4v2.5h-4zm-10 3h4v2.5h-4zm5 0h4v2.5h-4zm5 0h4v2.5h-4zm-10 3h4v3.013672h-4zm5 0h4v3.013672h-4zm5 0h4v3.013672h-4z" fill="url(#e)" stroke-width=".472441" transform="matrix(2.1166667 0 0 2.1166667 0 261.01666)"/></g><g stroke-width=".033073" transform="translate(0 1.058334)"><path d="m4.2333334.10609951-2.5143084 1.73210259-.75996543-.6421021c-.04552434-.0269314-.10526009-.0168625-.13379675.0234979l-.54589074.7214076c-.028537.04036-.0144835.094474.0310408.1214057l1.35081192 1.0975465c.045524.026931.1052598.016862.1337968-.023498z" fill="url(#a)" opacity=".906367"/><path d="m2.8928467 1.350822-1.0242269.7048665c-.0981151.0675311-.2292572.0611855-.3203939-.0155029l-.61701659-.5208984-.33176268.4371826 1.09140627.8867676z" fill="url(#c)" opacity=".906367"/><path d="m3.5605061.73070481-1.7663004 1.21646319c-.049172.03362-.1147478.030236-.1601969-.00827l-.72450357-.6108136-.49195965.6500895.28938803.234611c.0589227.00177.1180174.0031.17776693.0031.62547766 0 1.20772536-.099411 1.69602046-.2687175z" fill="url(#d)" opacity=".756554"/></g></svg>

<?xml version="1.0" encoding="UTF-8" standalone="no"?>
<svg
   xmlns:dc="http://purl.org/dc/elements/1.1/"
   xmlns:cc="http://creativecommons.org/ns#"
   xmlns:rdf="http://www.w3.org/1999/02/22-rdf-syntax-ns#"
   xmlns:svg="http://www.w3.org/2000/svg"
   xmlns="http://www.w3.org/2000/svg"
   xmlns:xlink="http://www.w3.org/1999/xlink"
   xmlns:sodipodi="http://sodipodi.sourceforge.net/DTD/sodipodi-0.dtd"
   xmlns:inkscape="http://www.inkscape.org/namespaces/inkscape"
   height="16"
   viewBox="0 0 4.2333333 4.2333335"
   width="16"
   version="1.1"
   id="svg29"
   sodipodi:docname="sc_optimizetable.svg"
   inkscape:version="0.92.3 (2405546, 2018-03-11)"
   inkscape:export-filename="/home/rizmut/Dokumen/Rizmut/Github/libreoffice-style-karasa-jaga/build/next/cmd/sc_optimizetable.png"
   inkscape:export-xdpi="96"
   inkscape:export-ydpi="96">
  <metadata
     id="metadata35">
    <rdf:RDF>
      <cc:Work
         rdf:about="">
        <dc:format>image/svg+xml</dc:format>
        <dc:type
           rdf:resource="http://purl.org/dc/dcmitype/StillImage" />
        <dc:title></dc:title>
      </cc:Work>
    </rdf:RDF>
  </metadata>
  <defs
     id="defs33">
    <linearGradient
       gradientTransform="scale(0.03307292)"
       id="g"
       gradientUnits="userSpaceOnUse"
       x1="46.5"
       x2="72"
       xlink:href="#e"
       y1="-22.395977"
       y2="74.104019" />
    <radialGradient
       id="e"
       cx="48"
       cy="-0.2148"
       gradientTransform="matrix(0.9792,0,0,0.9725,133.0002,20.8762)"
       gradientUnits="userSpaceOnUse"
       r="55.147999">
      <stop
         offset="0"
         stop-color="#72d13d"
         id="stop679" />
      <stop
         offset=".3553"
         stop-color="#35ac1c"
         id="stop681" />
      <stop
         offset=".6194"
         stop-color="#0f9508"
         id="stop683" />
      <stop
         offset=".7574"
         stop-color="#008c00"
         id="stop685" />
      <stop
         offset="1"
         stop-color="#007a00"
         id="stop687" />
    </radialGradient>
    <radialGradient
       id="f"
       cx="52.796875"
       cy="63.40625"
       fx="51.796875"
       fy="93.371971"
       gradientTransform="matrix(0.03307292,0,0,0.02152199,0,0.73240111)"
       gradientUnits="userSpaceOnUse"
       r="34.671875"
       xlink:href="#e" />
    <radialGradient
       id="radialGradient756"
       cx="48"
       cy="-0.2148"
       gradientTransform="matrix(0.9792,0,0,0.9725,133.0002,20.8762)"
       gradientUnits="userSpaceOnUse"
       r="55.147999">
      <stop
         offset="0"
         stop-color="#72d13d"
         id="stop746" />
      <stop
         offset=".3553"
         stop-color="#35ac1c"
         id="stop748" />
      <stop
         offset=".6194"
         stop-color="#0f9508"
         id="stop750" />
      <stop
         offset=".7574"
         stop-color="#008c00"
         id="stop752" />
      <stop
         offset="1"
         stop-color="#007a00"
         id="stop754" />
    </radialGradient>
    <linearGradient
       gradientTransform="scale(0.03307292)"
       id="k"
       gradientUnits="userSpaceOnUse"
       x1="64.189392"
       x2="64.189392"
       xlink:href="#a-3"
       y1="12.987433"
       y2="83.758904" />
    <linearGradient
       id="a-3">
      <stop
         offset="0"
         stop-color="#fff"
         id="stop655" />
      <stop
         offset="1"
         stop-color="#fff"
         stop-opacity="0"
         id="stop657" />
    </linearGradient>
  </defs>
  <sodipodi:namedview
     pagecolor="#ffffff"
     bordercolor="#666666"
     borderopacity="1"
     objecttolerance="10"
     gridtolerance="10"
     guidetolerance="10"
     inkscape:pageopacity="0"
     inkscape:pageshadow="2"
     inkscape:window-width="1366"
     inkscape:window-height="714"
     id="namedview31"
     showgrid="true"
     inkscape:zoom="20.85965"
     inkscape:cx="18.110534"
     inkscape:cy="10.660547"
     inkscape:window-x="0"
     inkscape:window-y="28"
     inkscape:window-maximized="1"
     inkscape:current-layer="svg29">
    <inkscape:grid
       type="xygrid"
       id="grid816" />
  </sodipodi:namedview>
  <radialGradient
     id="a"
     cx="-32"
     cy="9.6"
     gradientTransform="matrix(.11920158 .11920158 -.59600795 .59600795 13.01637 -1.457733)"
     gradientUnits="userSpaceOnUse"
     r="5.6">
    <stop
       offset="0"
       stop-color="#a50606"
       id="stop2" />
    <stop
       offset="1"
       stop-color="#f20909"
       id="stop4" />
  </radialGradient>
  <linearGradient
     id="b"
     gradientUnits="userSpaceOnUse"
     x1="8.7918873"
     x2="8.408372"
     y1="28.396006"
     y2="-6.000008">
    <stop
       offset="0"
       id="stop7" />
    <stop
       offset="1"
       stop-color="#fff"
       id="stop9" />
  </linearGradient>
  <linearGradient
     id="c"
     gradientTransform="matrix(0.28494299,0,0,0.34511728,0.597009,263.04019)"
     gradientUnits="userSpaceOnUse"
     x1="46.048"
     x2="46.048"
     y1="128.01709"
     y2="16.6203">
    <stop
       offset="0"
       stop-color="#c7cdd7"
       id="stop12" />
    <stop
       offset="1"
       stop-color="#fff"
       id="stop14" />
  </linearGradient>
  <g
     transform="matrix(0.125,0,0,0.125,0,-32.891666)"
     id="g21">
    <path
       d="M 2.116667,265.25 H 31.75 v 27.64507 H 2.116667 Z"
       id="path17"
       style="fill:url(#c)"
       inkscape:connector-curvature="0" />
    <path
       d="M 0,2 V 2.5878906 5 5.5 8 8.5 11 11.5 14.513672 15 h 1 4 1 4 1 4 1 V 14.513672 2 H 1 Z M 1,2.5878906 H 5 V 5 H 1 Z m 5,0 h 4 V 5 H 6 Z m 5,0 h 4 V 5 H 11 Z M 1,5.5 H 5 V 8 H 1 Z m 5,0 h 4 V 8 H 6 Z m 5,0 h 4 V 8 H 11 Z M 1,8.5 H 5 V 11 H 1 Z m 5,0 h 4 V 11 H 6 Z m 5,0 h 4 V 11 h -4 z m -10,3 h 4 v 3.013672 H 1 Z m 5,0 h 4 v 3.013672 H 6 Z m 5,0 h 4 v 3.013672 h -4 z"
       transform="matrix(2.1166667,0,0,2.1166667,0,261.01666)"
       id="path19"
       style="fill:url(#b);stroke-width:0.47244099"
       inkscape:connector-curvature="0" />
  </g>
  <g
     id="g814"
     transform="translate(0,1.0583336)">
    <path
       id="path714"
       d="M 4.2333334,0.10609951 1.719025,1.8382021 0.95905957,1.1961 C 0.91353523,1.1691686 0.85379948,1.1792375 0.82526282,1.2195979 L 0.27937208,1.9410055 c -0.028537,0.04036 -0.0144835,0.094474 0.0310408,0.1214057 L 1.6612248,3.1599577 c 0.045524,0.026931 0.1052598,0.016862 0.1337968,-0.023498 z"
       style="opacity:0.90636698;fill:url(#g);stroke-width:0.03307292"
       inkscape:connector-curvature="0" />
    <path
       id="path716"
       d="M 2.8928467,1.350822 1.8686198,2.0556885 C 1.7705047,2.1232196 1.6393626,2.116874 1.5482259,2.0401856 L 0.93120931,1.5192872 0.59944663,1.9564698 1.6908529,2.8432374 Z"
       style="opacity:0.90636698;fill:url(#f);stroke-width:0.03307292"
       inkscape:connector-curvature="0" />
    <path
       id="path718"
       d="M 3.5605061,0.73070481 1.7942057,1.947168 C 1.7450337,1.980788 1.6794579,1.977404 1.6340088,1.938898 L 0.90950523,1.3280844 0.41754558,1.9781739 0.70693361,2.2127849 c 0.0589227,0.00177 0.1180174,0.0031 0.17776693,0.0031 0.62547766,0 1.20772536,-0.099411 1.69602046,-0.2687175 z"
       style="opacity:0.75655398;fill:url(#k);stroke-width:0.03307292"
       inkscape:connector-curvature="0" />
  </g>
</svg>
